X:0668
T:The Parks of Yester.
M:9/8
L:1/8
Q:3/8=120
I: || ||
Z:Jack Campin * www.campin.me.uk * 2009
K:D
A|.F.D.D AFF BEE| FDD        AFF  d2A| FDD  AFF BEE|FDD AFF  d2
A| F`D`D AFF BGE| FDD        AFA Td2A| FDD  AGF BGE|FDD AFA  d2||
A|Td3    AGF BGE|Td3         AFA  d2A|TB>cd AGF BGE|FDD AFA Td2
A| d3    AGF BGE|(d/c/B/c/)d AFA Td2A|TB>cd AGF BGE|FDD AFA  d2|]
<end>
<start>
